X: 305561
M: C
L: 1/8
K: C
|: (cd) |\
e2e>a (g<e) (3(dcA) | G2G>G G2(cd) | (.e>.c)(eg) a2(ge) | d2d>d d2(cd) |\
e2e>a (g<e) (3(dcA) | G2G>G G2(cd) | (.e>.c)(eg) (ag)(ed) | c2c>c c2 :|


